projects/flag-game/flags/Chile.svg

<svg viewBox="0 0 1000 667" xmlns="http://www.w3.org/2000/svg" xmlns:xlink="http://www.w3.org/1999/xlink"><clipPath id="a"><path d="m0 0h1000v666.71875h-1000zm0 0"/></clipPath><g clip-path="url(#a)"><path d="m0 666.667969v-666.667969h1000v666.667969zm0 0" fill="#d52b1e" fill-rule="evenodd"/></g><g fill-rule="evenodd"><path d="m333.332031 333.332031h666.667969v-333.332031h-1000zm0 0" fill="#fff"/><path d="m0 0h333.332031v333.332031h-333.332031zm0 0" fill="#0039a6"/><path d="m166.667969 83.332031-25.753907 79.253907 39.628907 12.875zm0 0" fill="#fff"/><path d="m166.667969 83.332031 25.75 79.253907-39.628907 12.875zm0 0" fill="#fff"/><path d="m245.921875 140.914062h-83.335937v41.667969zm0 0" fill="#fff"/><path d="m245.921875 140.914062-67.417969 48.980469-24.492187-33.707031zm0 0" fill="#fff"/><path d="m87.414062 140.914062 67.417969 48.980469 24.488281-33.707031zm0 0" fill="#fff"/><path d="m87.414062 140.914062h83.332032v41.667969zm0 0" fill="#fff"/><path d="m215.648438 234.085938-25.753907-79.253907-39.625 12.871094zm0 0" fill="#fff"/><path d="m215.648438 234.085938-67.417969-48.980469 24.492187-33.710938zm0 0" fill="#fff"/><path d="m117.6875 234.085938 67.417969-48.980469-24.492188-33.710938zm0 0" fill="#fff"/><path d="m117.6875 234.085938 25.75-79.253907 39.625 12.871094zm0 0" fill="#fff"/></g></svg>

<?xml version="1.0" encoding="UTF-8"?>
<svg xmlns="http://www.w3.org/2000/svg" xmlns:xlink="http://www.w3.org/1999/xlink" viewBox="0 0 1000 667" version="1.1">
<defs>
<clipPath id="clip1">
  <path d="M 0 0 L 1000 0 L 1000 666.71875 L 0 666.71875 Z M 0 0 "/>
</clipPath>
</defs>
<g id="surface289">
<g clip-path="url(#clip1)" clip-rule="nonzero">
<path style=" stroke:none;fill-rule:evenodd;fill:rgb(83.528137%,16.862488%,11.764526%);fill-opacity:1;" d="M 0 666.667969 L 0 0 L 1000 0 L 1000 666.667969 Z M 0 666.667969 "/>
</g>
<path style=" stroke:none;fill-rule:evenodd;fill:rgb(99.998474%,99.998474%,99.998474%);fill-opacity:1;" d="M 333.332031 333.332031 L 1000 333.332031 L 1000 0 L 0 0 Z M 333.332031 333.332031 "/>
<path style=" stroke:none;fill-rule:evenodd;fill:rgb(0%,22.3526%,65.097046%);fill-opacity:1;" d="M 0 0 L 333.332031 0 L 333.332031 333.332031 L 0 333.332031 Z M 0 0 "/>
<path style=" stroke:none;fill-rule:evenodd;fill:rgb(99.998474%,99.998474%,99.998474%);fill-opacity:1;" d="M 166.667969 83.332031 L 140.914062 162.585938 L 180.542969 175.460938 Z M 166.667969 83.332031 "/>
<path style=" stroke:none;fill-rule:evenodd;fill:rgb(99.998474%,99.998474%,99.998474%);fill-opacity:1;" d="M 166.667969 83.332031 L 192.417969 162.585938 L 152.789062 175.460938 Z M 166.667969 83.332031 "/>
<path style=" stroke:none;fill-rule:evenodd;fill:rgb(99.998474%,99.998474%,99.998474%);fill-opacity:1;" d="M 245.921875 140.914062 L 162.585938 140.914062 L 162.585938 182.582031 Z M 245.921875 140.914062 "/>
<path style=" stroke:none;fill-rule:evenodd;fill:rgb(99.998474%,99.998474%,99.998474%);fill-opacity:1;" d="M 245.921875 140.914062 L 178.503906 189.894531 L 154.011719 156.1875 Z M 245.921875 140.914062 "/>
<path style=" stroke:none;fill-rule:evenodd;fill:rgb(99.998474%,99.998474%,99.998474%);fill-opacity:1;" d="M 87.414062 140.914062 L 154.832031 189.894531 L 179.320312 156.1875 Z M 87.414062 140.914062 "/>
<path style=" stroke:none;fill-rule:evenodd;fill:rgb(99.998474%,99.998474%,99.998474%);fill-opacity:1;" d="M 87.414062 140.914062 L 170.746094 140.914062 L 170.746094 182.582031 Z M 87.414062 140.914062 "/>
<path style=" stroke:none;fill-rule:evenodd;fill:rgb(99.998474%,99.998474%,99.998474%);fill-opacity:1;" d="M 215.648438 234.085938 L 189.894531 154.832031 L 150.269531 167.703125 Z M 215.648438 234.085938 "/>
<path style=" stroke:none;fill-rule:evenodd;fill:rgb(99.998474%,99.998474%,99.998474%);fill-opacity:1;" d="M 215.648438 234.085938 L 148.230469 185.105469 L 172.722656 151.394531 Z M 215.648438 234.085938 "/>
<path style=" stroke:none;fill-rule:evenodd;fill:rgb(99.998474%,99.998474%,99.998474%);fill-opacity:1;" d="M 117.6875 234.085938 L 185.105469 185.105469 L 160.613281 151.394531 Z M 117.6875 234.085938 "/>
<path style=" stroke:none;fill-rule:evenodd;fill:rgb(99.998474%,99.998474%,99.998474%);fill-opacity:1;" d="M 117.6875 234.085938 L 143.4375 154.832031 L 183.0625 167.703125 Z M 117.6875 234.085938 "/>
</g>
</svg>
